other/octoremote.svg

<svg width="48" height="48" version="1.1" viewBox="0 0 48 48" xmlns="http://www.w3.org/2000/svg">
 <g fill="none" stroke="#fff" stroke-linecap="round" stroke-linejoin="round" stroke-miterlimit="4.6667">
  <path d="m21.872 26.999c-0.42762 0.72865-0.71094 1.4187-0.80926 2.0564-0.32273 2.093 0.16868 3.6158 1.1199 4.6683 1.6867 1.8662 4.8191 2.2537 7.4218 1.7201 2.0674-0.42388 4.0087-1.9806 5.5201-3.3943 1.4644-1.3698 2.5252-2.6052 2.9056-2.5456 0.77302 0.12119-2.9506 12.391-13.335 13.088-10.384 0.69693-15.136-4.0278-15.714-14.496-0.69731-12.632 13.634-23.417 13.634-23.417s12.126-1.5279 16.427 4.3726c-0.31973 1.5048-2.7564 3.8492-5.7399 6.4994"/>
  <path d="m34.609 5.8951c-0.4164 0.25732-3.2215 4.5856-7.3408 7.8761-0.70433 0.56262-1.4403 1.132-2.1852 1.7239m-3.1245 2.6693c-2.4979 2.3669-4.7216 5.2683-5.739 9.3566-1.7269 6.9394 3.7914 11.762 8.6173 11.639 5.1545-0.1308 10.52-3.522 12.687-9.3598"/>
  <path d="m22.022 33.456v-16.146c0-0.96666 0.64537-1.7449 1.447-1.7449h10.233c0.80165 0 1.447 0.77822 1.447 1.7449v14.7m0 4.47v5.275c0 0.96666-0.64537 1.7449-1.447 1.7449h-10.233c-0.49755 0-0.9349-0.29978-1.1951-0.75834" stop-color="#000000" stroke-dashoffset="1.9" style="paint-order:markers fill stroke"/>
 </g>
</svg>

<svg xmlns="http://www.w3.org/2000/svg" viewBox="0 0 48 48"><defs><style>.a{fill:none;stroke:#fff;stroke-linecap:round;stroke-linejoin:round;}</style></defs><path class="a" d="M21.8719,26.9991a5.9833,5.9833,0,0,0-.8092,2.0564,5.4051,5.4051,0,0,0,1.12,4.6685c1.6867,1.8662,4.8192,2.2538,7.422,1.72,2.0675-.4239,4.0088-1.9806,5.52-3.3944,1.4644-1.37,2.5252-2.6052,2.9057-2.5456.773.1212-2.9507,12.3913-13.3354,13.0883S9.5587,38.5645,8.9807,28.096C8.2834,15.4637,22.6151,4.6783,22.6151,4.6783S34.7415,3.15,39.0426,9.0511c-.32,1.5048-2.7565,3.8493-5.74,6.5"/><path class="a" d="M34.6093,5.8946c-.4164.2573-3.2216,4.5857-7.341,7.8763-.7044.5626-1.44,1.132-2.1853,1.724m-3.1246,2.6693a18.9419,18.9419,0,0,0-5.7391,9.3569A9.12,9.12,0,0,0,24.8368,39.16,14.1855,14.1855,0,0,0,37.5242,29.8"/><path class="a" d="M22.0219,33.4563V17.31a1.6134,1.6134,0,0,1,1.4471-1.7449H33.7023a1.6134,1.6134,0,0,1,1.447,1.7449v14.7m0,4.47v5.2751a1.6135,1.6135,0,0,1-1.447,1.745H23.469a1.3943,1.3943,0,0,1-1.1952-.7584"/></svg>
